StripePaymentSheet/StripePaymentSheet/Resources/StripePaymentSheet.xcassets/PaymentMethods/icon-pm-klarna.imageset/icon-pm-klarna-mod.svg

<svg fill="none" height="16" viewBox="0 0 16 16" width="16" xmlns="http://www.w3.org/2000/svg" xmlns:xlink="http://www.w3.org/1999/xlink"><clipPath id="a"><path d="m0 0h16v16h-16z"/></clipPath><g clip-path="url(#a)"><path d="m0 2.5c0-1.38071 1.11929-2.5 2.5-2.5h11c1.3807 0 2.5 1.11929 2.5 2.5v11c0 1.3807-1.1193 2.5-2.5 2.5h-11c-1.38071 0-2.5-1.1193-2.5-2.5z" fill="#ffb3c7"/><path clip-rule="evenodd" d="m5.81489 11.9997h-1.81489v-7.99968h1.81489zm2.67643-3.45925c1.18918-1.19751 1.85658-2.80858 1.85658-4.54043l-1.77606-.00002c0 1.47212-.6693 2.82332-1.8362 3.70731l-.70363.53292 2.72638 3.75977h2.24161zm4.00868 1.45955c-.5523 0-1 .4477-1 1 0 .5522.4477 1 1 1 .5522 0 1-.4478 1-1 0-.5523-.4478-1-1-1z" fill="#0a0b09" fill-rule="evenodd"/></g></svg>

<svg width="16" height="16" viewBox="0 0 16 16" fill="none" xmlns="http://www.w3.org/2000/svg">
<g clip-path="url(#clip0_788_23086)">
<path d="M0 2.5C0 1.11929 1.11929 0 2.5 0H13.5C14.8807 0 16 1.11929 16 2.5V13.5C16 14.8807 14.8807 16 13.5 16H2.5C1.11929 16 0 14.8807 0 13.5V2.5Z" fill="#FFB3C7"/>
<path fill-rule="evenodd" clip-rule="evenodd" d="M5.81489 11.9997H4V4.00002H5.81489V11.9997ZM8.49132 8.54045C9.6805 7.34294 10.3479 5.73187 10.3479 4.00002L8.57184 4C8.57184 5.47212 7.90254 6.82332 6.73564 7.70731L6.03201 8.24023L8.75839 12H11L8.49132 8.54045ZM12.5 10C11.9477 10 11.5 10.4477 11.5 11C11.5 11.5522 11.9477 12 12.5 12C13.0522 12 13.5 11.5522 13.5 11C13.5 10.4477 13.0522 10 12.5 10Z" fill="#0A0B09"/>
</g>
<defs>
<clipPath id="clip0_788_23086">
<rect width="16" height="16" fill="white"/>
</clipPath>
</defs>
</svg>
